Obsidian-SemiLight/actions/22s/tools-media-optical-erase.svg

<svg viewBox="0 0 22 22" xmlns="http://www.w3.org/2000/svg"><path d="m11 3c-4.432 0-8 3.568-8 8s3.568 8 8 8c.339398 0 .672624-.023555 1-.066406v-1.007813c-.32646.047608-.659893.074219-1 .074219-3.878 0-7-3.122-7-7s3.122-7 7-7 7 3.122 7 7c0 .696167-.105435 1.366247-.292969 2h1.033203c.163714-.639651.259766-1.307916.259766-2 0-4.432-3.568-8-8-8zm0 2c-3.323996 0-6 2.676-6 6h3c0-1.662 1.3380018-3 3-3zm0 4c-1.1079987 0-2 .892-2 2s.8920013 2 2 2c1.107999 0 2-.892 2-2s-.892001-2-2-2zm0 1c.553999 0 1 .446 1 1s-.446001 1-1 1-1-.446-1-1 .446001-1 1-1zm3 1c0 .352948-.068732.687647-.181641 1h3.091797c.056152-.324868.089844-.658318.089844-1zm-2 2.818359c-.312353.112909-.647053.181641-1 .181641v3c.341682 0 .675132-.033692 1-.089844zm3 1.181641-2 2 2 2h4v-4zm.599609 1h2.400391v2h-2.400391l-1-1z" fill="#4d4d4d"/></svg>

<svg xmlns="http://www.w3.org/2000/svg" viewBox="0 0 22 22">
  <defs id="defs3051">
    <style type="text/css" id="current-color-scheme">
      .ColorScheme-Text {
        color:#4d4d4d;
      }
      </style>
  </defs>
 <path 
    style="fill:currentColor;fill-opacity:1;stroke:none" 
    d="M 11 3 C 6.568 3 3 6.568 3 11 C 3 15.432 6.568 19 11 19 C 11.339398 19 11.672624 18.976445 12 18.933594 L 12 17.925781 C 11.67354 17.973389 11.340107 18 11 18 C 7.122 18 4 14.878 4 11 C 4 7.122 7.122 4 11 4 C 14.878 4 18 7.122 18 11 C 18 11.696167 17.894565 12.366247 17.707031 13 L 18.740234 13 C 18.903948 12.360349 19 11.692084 19 11 C 19 6.568 15.432 3 11 3 z M 11 5 C 7.676004 5 5 7.676 5 11 L 8 11 C 8 9.338 9.3380018 8 11 8 L 11 5 z M 11 9 C 9.8920013 9 9 9.892 9 11 C 9 12.108 9.8920013 13 11 13 C 12.107999 13 13 12.108 13 11 C 13 9.892 12.107999 9 11 9 z M 11 10 C 11.553999 10 12 10.446 12 11 C 12 11.554 11.553999 12 11 12 C 10.446001 12 10 11.554 10 11 C 10 10.446 10.446001 10 11 10 z M 14 11 C 14 11.352948 13.931268 11.687647 13.818359 12 L 16.910156 12 C 16.966308 11.675132 17 11.341682 17 11 L 14 11 z M 12 13.818359 C 11.687647 13.931268 11.352947 14 11 14 L 11 17 C 11.341682 17 11.675132 16.966308 12 16.910156 L 12 13.818359 z M 15 15 L 13 17 L 15 19 L 19 19 L 19 15 L 15 15 z M 15.599609 16 L 18 16 L 18 18 L 15.599609 18 L 14.599609 17 L 15.599609 16 z "
    class="ColorScheme-Text"
    />  
</svg>
